(Exported by FreeCAD)
(Post Processor: grbl_post)
(Output Time:2025-07-28 11:38:17.404937)
(Begin preamble)
G17 G90
G21
(Begin operation: Fixture)
(Path: Fixture)
G54
(Finish operation: Fixture)
(Begin operation: endmill_3mm001)
(Path: endmill_3mm001)
(endmill_3mm001)
(Begin toolchange)
( M6 T2 )
M3 S10000
(Finish operation: endmill_3mm001)
(Begin operation: DressupTag)
(Path: DressupTag)
G0 Z8.000
G0 X41.061 Y31.061 Z8.000
G0 X41.061 Y31.061 Z6.000
G1 X41.061 Y31.061 Z2.500 F50.000
G2 X41.500 Y30.000 Z2.500 I-1.061 J-1.061 K0.000 F50.000
G1 X41.500 Y0.000 Z2.500 F50.000
G2 X40.000 Y-1.500 Z2.500 I-1.500 J0.000 K0.000 F50.000
G1 X28.000 Y-1.500 Z2.500 F50.000
G2 X26.500 Y-0.000 Z2.500 I0.000 J1.500 K0.000 F50.000
G1 X26.500 Y14.500 Z2.500 F50.000
G1 X13.500 Y14.500 Z2.500 F50.000
G1 X13.500 Y0.000 Z2.500 F50.000
G2 X12.000 Y-1.500 Z2.500 I-1.500 J0.000 K0.000 F50.000
G1 X0.000 Y-1.500 Z2.500 F50.000
G2 X-1.500 Y-0.000 Z2.500 I0.000 J1.500 K0.000 F50.000
G1 X-1.500 Y30.000 Z2.500 F50.000
G2 X0.000 Y31.500 Z2.500 I1.500 J-0.000 K0.000 F50.000
G1 X40.000 Y31.500 Z2.500 F50.000
G2 X41.061 Y31.061 Z2.500 I-0.000 J-1.500 K0.000 F50.000
G1 X41.061 Y31.061 Z2.000 F50.000
G2 X41.500 Y30.000 Z2.000 I-1.061 J-1.061 K0.000 F50.000
G1 X41.500 Y0.000 Z2.000 F50.000
G2 X40.000 Y-1.500 Z2.000 I-1.500 J0.000 K0.000 F50.000
G1 X28.000 Y-1.500 Z2.000 F50.000
G2 X26.500 Y-0.000 Z2.000 I0.000 J1.500 K0.000 F50.000
G1 X26.500 Y14.500 Z2.000 F50.000
G1 X13.500 Y14.500 Z2.000 F50.000
G1 X13.500 Y0.000 Z2.000 F50.000
G2 X12.000 Y-1.500 Z2.000 I-1.500 J0.000 K0.000 F50.000
G1 X0.000 Y-1.500 Z2.000 F50.000
G2 X-1.500 Y-0.000 Z2.000 I0.000 J1.500 K0.000 F50.000
G1 X-1.500 Y30.000 Z2.000 F50.000
G2 X0.000 Y31.500 Z2.000 I1.500 J-0.000 K0.000 F50.000
G1 X40.000 Y31.500 Z2.000 F50.000
G2 X41.061 Y31.061 Z2.000 I-0.000 J-1.500 K0.000 F50.000
G1 X41.061 Y31.061 Z1.500 F50.000
G2 X41.500 Y30.000 Z1.500 I-1.061 J-1.061 K0.000 F50.000
G1 X41.500 Y0.000 Z1.500 F50.000
G2 X40.000 Y-1.500 Z1.500 I-1.500 J0.000 K0.000 F50.000
G1 X28.000 Y-1.500 Z1.500 F50.000
G2 X26.500 Y-0.000 Z1.500 I0.000 J1.500 K0.000 F50.000
G1 X26.500 Y14.500 Z1.500 F50.000
G1 X13.500 Y14.500 Z1.500 F50.000
G1 X13.500 Y0.000 Z1.500 F50.000
G2 X12.000 Y-1.500 Z1.500 I-1.500 J0.000 K0.000 F50.000
G1 X0.000 Y-1.500 Z1.500 F50.000
G2 X-1.500 Y-0.000 Z1.500 I0.000 J1.500 K0.000 F50.000
G1 X-1.500 Y30.000 Z1.500 F50.000
G2 X0.000 Y31.500 Z1.500 I1.500 J-0.000 K0.000 F50.000
G1 X40.000 Y31.500 Z1.500 F50.000
G2 X41.061 Y31.061 Z1.500 I-0.000 J-1.500 K0.000 F50.000
G1 X41.061 Y31.061 Z1.000 F50.000
G2 X41.500 Y30.000 Z1.000 I-1.061 J-1.061 K0.000 F50.000
G1 X41.500 Y0.000 Z1.000 F50.000
G2 X40.000 Y-1.500 Z1.000 I-1.500 J0.000 K0.000 F50.000
G1 X28.000 Y-1.500 Z1.000 F50.000
G2 X26.500 Y-0.000 Z1.000 I0.000 J1.500 K0.000 F50.000
G1 X26.500 Y14.500 Z1.000 F50.000
G1 X13.500 Y14.500 Z1.000 F50.000
G1 X13.500 Y0.000 Z1.000 F50.000
G2 X12.000 Y-1.500 Z1.000 I-1.500 J0.000 K0.000 F50.000
G1 X0.000 Y-1.500 Z1.000 F50.000
G2 X-1.500 Y-0.000 Z1.000 I0.000 J1.500 K0.000 F50.000
G1 X-1.500 Y30.000 Z1.000 F50.000
G2 X0.000 Y31.500 Z1.000 I1.500 J-0.000 K0.000 F50.000
G1 X40.000 Y31.500 Z1.000 F50.000
G2 X41.061 Y31.061 Z1.000 I-0.000 J-1.500 K0.000 F50.000
G1 X41.061 Y31.061 Z0.500 F50.000
G2 X41.500 Y30.000 Z0.500 I-1.061 J-1.061 K0.000 F50.000
G1 X41.500 Y16.990 Z0.500 F50.000
G1 X41.500 Y16.490 Z1.000 F50.000
G1 X41.500 Y13.510 Z1.000 F50.000
G1 X41.500 Y13.010 Z0.500 F50.000
G1 X41.500 Y0.000 Z0.500 F50.000
G2 X40.000 Y-1.500 Z0.500 I-1.500 J0.000 K0.000 F50.000
G1 X28.000 Y-1.500 Z0.500 F50.000
G2 X26.500 Y-0.000 Z0.500 I0.000 J1.500 K0.000 F50.000
G1 X26.500 Y5.260 Z0.500 F50.000
G1 X26.500 Y5.760 Z1.000 F50.000
G1 X26.500 Y8.740 Z1.000 F50.000
G1 X26.500 Y9.240 Z0.500 F50.000
G1 X26.500 Y14.500 Z0.500 F50.000
G1 X13.500 Y14.500 Z0.500 F50.000
G1 X13.500 Y9.240 Z0.500 F50.000
G1 X13.500 Y8.740 Z1.000 F50.000
G1 X13.500 Y5.760 Z1.000 F50.000
G1 X13.500 Y5.260 Z0.500 F50.000
G1 X13.500 Y0.000 Z0.500 F50.000
G2 X12.000 Y-1.500 Z0.500 I-1.500 J0.000 K0.000 F50.000
G1 X0.000 Y-1.500 Z0.500 F50.000
G2 X-1.500 Y-0.000 Z0.500 I0.000 J1.500 K0.000 F50.000
G1 X-1.500 Y13.010 Z0.500 F50.000
G1 X-1.500 Y13.510 Z1.000 F50.000
G1 X-1.500 Y16.490 Z1.000 F50.000
G1 X-1.500 Y16.990 Z0.500 F50.000
G1 X-1.500 Y30.000 Z0.500 F50.000
G2 X0.000 Y31.500 Z0.500 I1.500 J-0.000 K0.000 F50.000
G1 X8.010 Y31.500 Z0.500 F50.000
G1 X8.510 Y31.500 Z1.000 F50.000
G1 X11.490 Y31.500 Z1.000 F50.000
G1 X11.990 Y31.500 Z0.500 F50.000
G1 X28.010 Y31.500 Z0.500 F50.000
G1 X28.510 Y31.500 Z1.000 F50.000
G1 X31.490 Y31.500 Z1.000 F50.000
G1 X31.990 Y31.500 Z0.500 F50.000
G1 X40.000 Y31.500 Z0.500 F50.000
G2 X41.061 Y31.061 Z0.500 I-0.000 J-1.500 K0.000 F50.000
G1 X41.061 Y31.061 Z0.000 F50.000
G2 X41.500 Y30.000 Z0.000 I-1.061 J-1.061 K0.000 F50.000
G1 X41.500 Y17.490 Z0.000 F50.000
G1 X41.500 Y16.490 Z1.000 F50.000
G1 X41.500 Y13.510 Z1.000 F50.000
G1 X41.500 Y12.510 Z0.000 F50.000
G1 X41.500 Y0.000 Z0.000 F50.000
G2 X40.000 Y-1.500 Z0.000 I-1.500 J0.000 K0.000 F50.000
G1 X28.000 Y-1.500 Z0.000 F50.000
G2 X26.500 Y-0.000 Z0.000 I0.000 J1.500 K0.000 F50.000
G1 X26.500 Y4.760 Z0.000 F50.000
G1 X26.500 Y5.760 Z1.000 F50.000
G1 X26.500 Y8.740 Z1.000 F50.000
G1 X26.500 Y9.740 Z0.000 F50.000
G1 X26.500 Y14.500 Z0.000 F50.000
G1 X13.500 Y14.500 Z0.000 F50.000
G1 X13.500 Y9.740 Z0.000 F50.000
G1 X13.500 Y8.740 Z1.000 F50.000
G1 X13.500 Y5.760 Z1.000 F50.000
G1 X13.500 Y4.760 Z0.000 F50.000
G1 X13.500 Y0.000 Z0.000 F50.000
G2 X12.000 Y-1.500 Z0.000 I-1.500 J0.000 K0.000 F50.000
G1 X0.000 Y-1.500 Z0.000 F50.000
G2 X-1.500 Y-0.000 Z0.000 I0.000 J1.500 K0.000 F50.000
G1 X-1.500 Y12.510 Z0.000 F50.000
G1 X-1.500 Y13.510 Z1.000 F50.000
G1 X-1.500 Y16.490 Z1.000 F50.000
G1 X-1.500 Y17.490 Z0.000 F50.000
G1 X-1.500 Y30.000 Z0.000 F50.000
G2 X0.000 Y31.500 Z0.000 I1.500 J-0.000 K0.000 F50.000
G1 X7.510 Y31.500 Z0.000 F50.000
G1 X8.510 Y31.500 Z1.000 F50.000
G1 X11.490 Y31.500 Z1.000 F50.000
G1 X12.490 Y31.500 Z0.000 F50.000
G1 X27.510 Y31.500 Z0.000 F50.000
G1 X28.510 Y31.500 Z1.000 F50.000
G1 X31.490 Y31.500 Z1.000 F50.000
G1 X32.490 Y31.500 Z0.000 F50.000
G1 X40.000 Y31.500 Z0.000 F50.000
G2 X41.061 Y31.061 Z0.000 I-0.000 J-1.500 K0.000 F50.000
G0 X41.061 Y31.061 Z8.000
(Finish operation: DressupTag)
(Begin postamble)
M5
G17 G90
M2
